svg_80x80/perl.svg

<svg viewBox="0 0 80 80" xmlns="http://www.w3.org/2000/svg">
<rect width="100%" height="100%" fill="#004065"/>
<path d="M47.9387 42.2406C48.5305 45.7174 48.9292 49.2245 49.1329 52.7457C49.1939 54.9416 48.5561 57.1 47.3119 58.9076C47.024 59.9615 46.1432 58.9076 45.5164 58.9076C43.9665 58.9076 43.3991 57.2077 42.5606 56.1963C41.7221 55.1849 42.3235 54.2245 42.8824 53.4001C43.4838 52.9666 43.7294 52.0062 44.5763 52.0062C45.4233 52.0062 45.3301 50.8163 45.2031 50.1874C45.7705 49.3375 45.4233 48.0116 45.9822 47.0427C46.9816 46.6007 46.6937 45.0284 47.0409 44.153C47.3204 43.524 47.0409 42.3171 47.837 42.0537C47.837 42.0537 47.9302 42.0537 47.9133 42.1981L47.9387 42.2406ZM46.9647 6.32297C45.6519 6.16998 44.6695 7.0624 43.5769 7.56385C42.6637 7.87047 41.7332 8.12305 40.7905 8.32028C40.1045 9.71416 38.5292 10.5386 37.6822 11.856C36.8106 14.4645 35.1936 16.7582 33.0325 18.4513C29.9412 20.0577 28.3828 23.5509 27.3665 26.8401C27.0192 27.5795 27.07 28.6674 26.6974 29.2963C25.4693 29.6448 26.1215 28.0385 25.9859 27.2735C25.7996 26.1261 26.8329 25.3867 26.8752 24.2648C27.2859 23.4819 27.4596 22.5957 27.3749 21.715C27.2394 19.7177 27.8407 17.287 26.4264 15.6466C25.5794 15.1621 25.8589 14.1252 25.5794 13.3263C24.7488 12.1871 23.69 11.2347 22.4711 10.5301C21.4717 10.4366 20.5486 9.13621 19.5238 9.73965C18.8801 10.4961 17.6944 10.4791 17.3217 11.482C17.0846 12.7399 15.6787 12.4084 14.7809 12.7144C13.6121 13.1733 12.1046 12.7144 11.1475 13.6493C10.1905 14.5842 8.6067 15.9611 9.08945 17.5334C10.1905 19.7007 13.0277 18.6128 14.5776 19.9302C14.0864 21.3836 13.519 22.8029 12.8838 24.1798C12.6284 26.073 12.5886 27.9891 12.7652 29.8913C13.0616 31.7951 12.5704 34.2429 14.1626 35.5773C15.0689 35.9172 15.0096 36.9796 15.3568 37.7616C15.7041 38.5435 16.3732 37.4811 16.6526 38.2375C17.4996 38.688 16.7373 39.6314 17.1862 40.1923C17.929 40.3404 18.6122 40.7039 19.1511 41.2377C20.0049 41.84 20.8016 42.52 21.531 43.269C22.09 44.4164 22.793 42.1471 23.4112 43.0056C23.4801 43.1753 23.5816 43.3298 23.7099 43.4602C23.8383 43.5905 23.991 43.6942 24.1594 43.7652C24.3277 43.8363 24.5084 43.8733 24.691 43.8742C24.8736 43.8751 25.0547 43.8399 25.2237 43.7705L25.3761 43.7025C26.5095 43.5092 27.5791 43.0425 28.4929 42.3426C29.0942 44.4844 28.6284 46.8047 28.8994 49.0145C29.2631 50.6244 29.4925 52.2619 29.5854 53.9101C30.0025 55.5367 30.2438 57.2036 30.3053 58.8821C30.7631 62.3752 30.1734 65.9259 28.6115 69.0811C28.5193 69.5639 28.2854 70.008 27.9397 70.3563C27.5941 70.7047 27.1526 70.9413 26.672 71.036C25.9775 71.3589 24.5292 71.8859 24.9781 72.9398C26.5957 74.3337 29.162 74.1807 31.0083 73.4667C32.2364 72.8718 31.1777 71.3759 31.8044 70.4665C32.6514 67.2793 32.2279 63.8711 33.2019 60.6839C33.9616 59.0783 34.2551 57.2903 34.0488 55.5249C34.2436 54.4455 33.7947 53.1451 34.4892 52.2697C34.4959 51.1959 34.8832 50.1594 35.5818 49.346C35.8101 47.7012 35.9289 46.043 35.9375 44.3824C36.9166 44.0729 37.9487 43.9688 38.9696 44.0765C38.9696 44.9944 38.3174 46.0568 38.5122 47.0937C38.7255 48.2657 38.5024 49.4755 37.8855 50.4934C37.4535 52.3122 37.1571 54.5475 38.2835 56.0859C40.1553 58.1427 42.5945 59.596 44.3561 61.7888C44.4875 61.8938 44.5969 62.0238 44.678 62.1715C44.759 62.3191 44.81 62.4814 44.8281 62.6489C44.8463 62.8165 44.8311 62.986 44.7835 63.1477C44.7359 63.3093 44.6569 63.4599 44.5509 63.5907L44.4408 63.7181C44.2846 64.3046 43.9875 64.8436 43.5755 65.2881C43.1636 65.7326 42.6493 66.069 42.0778 66.2679C41.341 66.5654 40.1553 67.6703 41.0192 68.4352C42.7593 68.8134 44.5714 68.6776 46.2363 68.0442C47.3797 67.6278 46.9647 66.2424 47.4136 65.3755C48.0241 66.2144 48.5895 67.0854 49.1075 67.9847C49.8189 69.0471 51.047 68.1717 51.8939 67.8318C51.9942 66.279 51.6814 64.7273 50.9877 63.3357C50.5981 62.3753 49.0651 62.3498 49.1498 61.2449C49.9036 58.4486 51.7669 56.2728 53.249 53.9101C54.4686 52.7287 53.5539 50.9863 53.6217 49.5075C53.2238 45.6922 54.1416 41.8554 56.2218 38.637C56.6668 40.4188 57.2328 42.1681 57.9156 43.8725C58.3969 45.874 59.2786 47.7565 60.5073 49.4055C61.0747 51.3943 60.9223 53.6041 61.3034 55.6524C61.834 59.2211 61.6236 62.8613 60.6851 66.3444C60.7783 67.6193 59.5841 68.5542 59.6942 69.8036C60.0245 70.9425 61.3881 70.0246 62.0572 70.509C62.665 70.7035 63.3225 70.6694 63.907 70.4128C64.4915 70.1563 64.9629 69.695 65.2332 69.1151C64.9452 68.1443 64.7495 67.1483 64.6488 66.1404C63.6895 63.1906 63.4799 60.047 64.039 56.9953C64.1491 55.3464 65.1401 53.3321 63.8612 51.8957C63.5055 50.3829 64.1068 48.751 63.7426 47.1957C62.8901 43.2266 62.7953 39.1313 63.4631 35.1268C63.6833 34.5658 63.4631 33.5289 64.0644 33.223C64.6564 34.1105 64.9201 35.178 64.8097 36.2402C65.3505 37.888 65.418 39.6552 65.0045 41.3397C63.9882 42.6401 64.615 44.3994 64.742 45.8613C64.9114 46.8982 65.9785 46.1588 66.1395 45.5128C67.0697 43.7542 67.8215 41.9062 68.3838 39.9968C69.0275 39.1469 68.3838 38.11 68.3838 37.2006C69.3748 37.0731 68.9936 35.9597 68.4685 35.5008C67.935 33.7159 68.062 31.6421 66.8678 30.1208C64.9711 28.1585 63.4011 25.9029 62.2181 23.4404C60.9223 19.4288 57.3228 16.76 56.1032 12.7059C55.873 11.5432 55.4097 10.4396 54.7415 9.46218C54.0732 8.48473 53.2139 7.65381 52.2157 7.01991C51.3165 6.60344 50.3845 6.26231 49.4293 6C48.6175 6.16984 47.7932 6.27217 46.9647 6.30597" fill="white"/>
</svg>

<svg xmlns="http://www.w3.org/2000/svg" viewBox="0 0 80 80">
  <rect width="100%" height="100%" fill="#004065"/>
  <path fill="#fff" d="M48 42.2c.5 3.5 1 7 1.1 10.5 0 2.2-.5 4.4-1.8 6.2-.3 1-1.2 0-1.8 0-1.5 0-2.1-1.7-3-2.7-.8-1-.2-2 .4-2.8.6-.4.8-1.4 1.7-1.4.8 0 .7-1.2.6-1.8.6-.9.2-2.2.8-3.2 1-.4.7-2 1-2.8.3-.7 0-1.9.8-2.1l.1.1ZM47 6.3c-1.3-.1-2.3.8-3.4 1.3l-2.8.7c-.7 1.4-2.3 2.2-3.1 3.6a14 14 0 0 1-4.7 6.6c-3 1.6-4.6 5-5.6 8.3-.4.8-.3 1.9-.7 2.5-1.2.3-.6-1.3-.7-2-.2-1.2.8-2 .9-3 .4-.8.6-1.7.5-2.6-.2-2 .4-4.4-1-6-.8-.5-.5-1.6-.8-2.4-.9-1.1-2-2-3.1-2.8-1 0-2-1.4-3-.8-.6.8-1.8.8-2.2 1.8-.2 1.2-1.6 1-2.5 1.2-1.2.5-2.7 0-3.7 1-1 .9-2.5 2.3-2 3.8 1 2.2 4 1.1 5.5 2.4a43 43 0 0 1-1.7 4.3c-.3 1.9-.3 3.8-.1 5.7.3 1.9-.2 4.3 1.4 5.7.9.3.8 1.4 1.2 2.2.3.7 1-.3 1.3.4.8.5 0 1.4.5 2 .7.1 1.4.5 2 1a17 17 0 0 1 2.3 2c.6 1.2 1.3-1 2-.2a1.4 1.4 0 0 0 1.2.9l.5-.1.2-.1a7 7 0 0 0 3-1.4c.7 2.2.2 4.5.5 6.7.4 1.6.6 3.3.7 5 .4 1.5.6 3.2.7 4.9.5 3.5-.1 7-1.7 10.2a2.5 2.5 0 0 1-2 2c-.6.3-2 .8-1.6 1.8 1.6 1.4 4.2 1.3 6 .6 1.2-.6.2-2.1.8-3 .9-3.2.4-6.6 1.4-9.8.8-1.6 1-3.4.8-5.2.2-1-.2-2.4.5-3.2 0-1.1.4-2.1 1-3 .3-1.6.4-3.3.4-5 1-.2 2-.3 3-.2 0 .9-.6 2-.4 3 .2 1.2 0 2.4-.6 3.4-.4 1.8-.7 4 .4 5.6 1.9 2 4.3 3.5 6 5.7a1.3 1.3 0 0 1 .3 1.8l-.2.1a3.7 3.7 0 0 1-2.3 2.6c-.8.3-2 1.4-1 2.1 1.7.4 3.5.3 5.1-.4 1.2-.4.8-1.8 1.2-2.6l1.7 2.6c.7 1 2 .2 2.8-.2 0-1.5-.2-3-1-4.5-.3-1-1.8-1-1.8-2 .8-2.9 2.7-5 4.1-7.4 1.3-1.2.4-3 .4-4.4-.4-3.8.5-7.6 2.6-10.9.5 1.8 1 3.6 1.7 5.3.5 2 1.4 3.9 2.6 5.5.6 2 .4 4.2.8 6.3.5 3.5.3 7.2-.6 10.6 0 1.3-1.1 2.3-1 3.5.3 1.1 1.7.2 2.4.7a2.6 2.6 0 0 0 3.1-1.4l-.6-3c-1-3-1.1-6-.6-9.1.1-1.7 1.1-3.7-.1-5.1-.4-1.5.2-3.1-.2-4.7-.8-4-.9-8-.2-12 .2-.6 0-1.7.6-2 .6 1 .8 2 .7 3 .6 1.7.6 3.5.2 5.1-1 1.3-.4 3.1-.3 4.6.2 1 1.3.3 1.4-.4 1-1.7 1.7-3.6 2.3-5.5.6-.9 0-1.9 0-2.8 1-.1.6-1.2 0-1.7-.5-1.8-.3-3.9-1.5-5.4-2-2-3.5-4.2-4.7-6.7-1.3-4-4.9-6.6-6.1-10.7A8.8 8.8 0 0 0 52.2 7a18 18 0 0 0-2.8-1l-2.4.3"/>
</svg>
